packages/sources/icons/src/vitamix/pinterest-line.svg

<svg width="16" height="16" viewBox="0 0 16 16" fill="none" xmlns="http://www.w3.org/2000/svg">
<path fill-rule="evenodd" clip-rule="evenodd" d="M1.33333 8C1.33333 11.682 4.318 14.6667 8 14.6667C11.682 14.6667 14.6667 11.682 14.6667 8C14.6667 4.318 11.682 1.33333 8 1.33333C4.318 1.33333 1.33333 4.318 1.33333 8ZM5.75599 12.1267C5.70799 12.3467 5.67599 12.57 5.65999 12.794V12.7947C3.1154 11.5528 1.98473 8.53904 3.0846 5.92994C4.18446 3.32085 7.13144 2.02598 9.79713 2.98054C12.4628 3.9351 13.918 6.80633 13.1116 9.52053C12.3052 12.2347 9.51846 13.8457 6.76399 13.19C6.87066 12.9653 6.95999 12.7333 7.03066 12.4967C7.05732 12.392 7.12532 12.114 7.22266 11.714L7.22399 11.7093L7.36199 11.1413L7.39066 11.0233C7.71813 11.4408 8.2243 11.678 8.75466 11.6627C10.5933 11.6627 11.8813 9.948 11.8813 7.59333C11.8813 5.71933 10.3173 4.16667 8.22732 4.16667C5.75999 4.16667 4.09932 5.89933 4.09932 7.88933C4.09932 8.99733 4.52332 9.86333 5.29666 10.1827C5.37114 10.2205 5.45928 10.22 5.53332 10.1813C5.60985 10.1417 5.66322 10.0683 5.67732 9.98333C5.70132 9.898 5.76732 9.642 5.79466 9.53C5.84466 9.392 5.79866 9.23 5.67799 9.13667C5.44073 8.82188 5.32008 8.4345 5.33666 8.04067C5.32682 7.30247 5.61386 6.59125 6.13332 6.06667C6.64233 5.55289 7.34326 5.2758 8.06599 5.30267C9.49399 5.30267 10.354 6.172 10.354 7.48533C10.354 9.194 9.61532 10.5173 8.62066 10.5173C8.36098 10.531 8.11085 10.4176 7.94999 10.2133C7.78666 10.0073 7.72799 9.73333 7.79199 9.476C7.81666 9.36667 7.84599 9.25333 7.87999 9.128C7.91066 9.01667 7.94332 8.906 7.99066 8.74733C8.23599 7.92267 8.29266 7.69267 8.29266 7.39067C8.32332 7.156 8.24999 6.91 8.09132 6.72667C7.93266 6.54267 7.70332 6.43867 7.46332 6.44267C6.80999 6.44267 6.30599 7.13333 6.30599 8.02467C6.30134 8.35072 6.36587 8.67405 6.49532 8.97333C6.46843 9.03105 6.42863 9.20237 6.37719 9.42377L6.37466 9.43467L6.11666 10.5467L6.11199 10.5667C5.92532 11.3733 5.79799 11.93 5.75599 12.1267Z" fill="#001018"/>
</svg>

<svg width="16" height="16" fill="none" xmlns="http://www.w3.org/2000/svg"><path fill-rule="evenodd" clip-rule="evenodd" d="M1.333 8a6.667 6.667 0 1 0 13.333 0A6.667 6.667 0 0 0 1.333 8zm4.423 4.127a4.7 4.7 0 0 0-.096.667 5.333 5.333 0 1 1 1.104.396c.107-.225.196-.457.267-.693l.192-.783.001-.005.138-.568.029-.118a1.67 1.67 0 0 0 1.364.64c1.838 0 3.126-1.715 3.126-4.07 0-1.874-1.564-3.426-3.654-3.426C5.76 4.167 4.1 5.899 4.1 7.889c0 1.108.424 1.974 1.198 2.294a.258.258 0 0 0 .236-.002.273.273 0 0 0 .144-.198c.024-.085.09-.341.118-.453a.351.351 0 0 0-.117-.393 1.702 1.702 0 0 1-.341-1.096c-.01-.739.277-1.45.796-1.974a2.585 2.585 0 0 1 1.933-.764c1.428 0 2.288.869 2.288 2.182 0 1.709-.739 3.032-1.733 3.032a.8.8 0 0 1-.671-.304.857.857 0 0 1-.158-.737c.025-.11.054-.223.088-.348.03-.111.063-.222.11-.38.246-.825.303-1.055.303-1.357a.855.855 0 0 0-.202-.664.812.812 0 0 0-.628-.284c-.653 0-1.157.69-1.157 1.582-.005.326.06.649.19.948-.028.058-.067.23-.119.45l-.002.012-.258 1.112-.005.02a145.75 145.75 0 0 0-.356 1.56z" fill="#001018"/></svg>
